X:1
T:James Gibb editions
T:O salutaris hostia - Bentivoglio
T:#
%%score [ 1 2 3 ]
L:1/8
Q:1/4=69
M:4/4
K:Bb
V:1 treble nm="Alto" snm="A"
V:2 treble-8 nm="Tenor" snm="T"
V:3 bass nm="Bass" snm="B"
V:1
"^O salutaris hostia""^Giulio Bentivoglio\n (1864-1939)""^adagio""^con dolcezza"!p! D4 G2 G2 | %1
w: O sa- lu-|
 F4 D4 | D6 C2 | D2 z2 z2 F2 | F2 E2 D2 E2 |[M:4/4] C3 C"^," B,2 E2 | E2 D2 C2 B,2 | B,3 A, A,4 | %8
w: ta- ris|ho- sti-|a, quae|coe- li pan- dis|o- sti- um: quae|coe- li pan- dis|o- sti- um:|
 z8 |!mf! G4 G2 (F2- | F2 E2) D2 D2 | E3 F"^," G4 |!f! E4 E2 (D2- | D2) C2 B,2 C2 | F3 E"^," D4 | %15
w: |bel- la pre\-|* * munt ho-|sti- li- a,|bel- la pre\-|* * munt ho-|sti- li- a,|
 (C2 D2) E2 F2 |"^," G4 G4 | (G2 F2 B,2 C2 |!>(! D6)!>)! C2 | !fermata!=B,4 z4 :| %20
w: da * ro- bur|fer au-|xi\- * * *|* li-|um.|
!p!"^piu adagio"[Q:1/4=63]!<(! (C2 D2!<)!!>(! F2 E2)!>)! | !fermata!D8 |] %22
w: A\- * * *|men.|
V:2
!p! B4 B2 B2 | A4 B4 | z2 (BA) G4 |"^," F2 F2 (G2 A2 | B2) c2 d2 B2 | %5
w: O sa- lu-|ta- ris|ho\- * sti-|a, quae coe\- *|* li pan- dis|
[M:4/4][K:treble-8] _A3 A"^," G2 G2 | =A2 B2 A2 G2 | G3 ^F F4 | z4!mf! d4- | d2 c2 (=B4 | %10
w: o- sti- um: quae|coe- li pan- dis|o- sti- um:|bel\-|* la pre\-|
 G2 c2) c2 =B2 | c3 d e4 | z2!f! G2 =A2 (_B2- | B2 A2) G2 G2 | F2 (GA) B4 | z8 | (G2 A2) B2 c2 | %17
w: * * munt ho-|sti- li- a,|bel- la pre\-|* * munt ho-|sti- li\- * a,||da * ro- bur|
 A2 (A2 BA G2- |!>(! G2 ^F2 =E2)!>)! F2 | G4 z4 :|!p! (_A4 G4) | !fermata!=B8 |] %22
w: fer au\- * * *|* * * li-|um.|A\- *|men|
V:3
!p! G,4 E,2 E,2 | F,4 G,4 | z2 (G,F, E,2) E,2 | B,,2 z2 z2 F,2 | G,2 A,2 B,2 G,2 | %5
w: O sa- lu-|ta- ris|ho\- * * sti-|a, quae|coe- li pan- dis|
[M:4/4] _A,3 A,"^," E,2 C,2 | F,2 B,,2 C,2 ^C,2 | D,3 D,"^," D,4 |!mf! G,4 G,2 (=F,2- | %9
w: o- sti- um: quae|coe- li pan- dis|o- sti- um:|bel- la pre\-|
 F,2 E,2) D,2 G,2 | (C,2 E,F, G,4 | C2 C2 C4 | z2!f! E,2 F,2 (G,2 | B,,2 C,D,) E,2 E,2 | %14
w: * * munt ho-|sti\- * * *|* li- a,|bel- la pre\-|* * * munt ho-|
 D,2 C,2 B,,4 | z4 C,2 D,2) | E,2 E,2 D,2 (C,2 | D,4 G,F, E,2 |!>(! D,4) D,4!>)! | G,4 z4 :| %20
w: sti- li- a,|da *|ro- bur fer au\-||* li-|um.|
!p! (F,4 C,4) | !fermata!G,8 |] %22
w: A\- *|men.|

